X: 42489
T: Wha' Saw The 42nd
R: polka
M: 2/4
K: Dmajor
|:D>D DE|FE FA|D>D DE|FA E2|
D>D DE|FE FA|Bd Ad|FE E2:|
|:FA AB/c/|dA BA|FA AB/c/|dF E2|
FA AB/c/|dA BA|Bd Ad|FE E2:|

